X: 6
T: Rakish Paddy
R: reel
M: 4/4
L: 1/8
K: Dmix
cBcd cAAB|cAAG EG~G2|Add^c d2ec|dcAG FGAB|cded cAAB|c/B/A AG EGGE|D2ED EA~A2|dcAG F/G/A D2:|||:eg~g2 ag~g2|eg~g2 edBd|ea~a2 agag|eaag edBd|eg~g2 ag~g2|effe defg|affe fdee|1dcAG F/G/A D2:|2dcAG FGAB|


Tune 86	Setting 27953

